!!!!SEGMENT: pl-wumfc--n2100--014_dobrzynski-ignacy-feliks--monbar-czyli-flibustierowie-partytura-fortepianowa-akt-ii-13-solo.krn
!!!cenid: 18xx:4197
!!!COM: Dobrzyński, Ignacy Feliks
!!!COM-rismID: pe30020642
!!!CDT: 1807/02/15-1867/10/09
!!!CNT: Polish
!!!GTL: Monbar czyli Flibustierowie - partytura fortepianowa
!!!OTL: Akt II - 13. Solo
!!!PDT: 1863
!!!AGN:
!!!SMS-siglum: PL-Wumfc
!!!SMS-shelfmark: N2100
!!!SMS-shelfwork: 014 G
!!!SMS-variant:
!!!SMS-altvar:
!!!NIFC-rismSourceID: 1001123412
!!!NIFC-rismChildID: 1001123412
!!!NIFC-islandoraID: pl-wumfc:1659
!!!URL-pdf-islandora: https://repozytorium.nifc.pl/islandora/object/pl-wumfc%3A1659/datastream/PDF/view
!!!URL-scan: https://polish.musicsources.pl/pl/lokalizacje/galeria/druki-muzyczne/11863-monbar-czyli-flibustierowie/104 @EN{Scan on Polish Music Sources Website} @PL{Skany w portalu Dziedzictwo Muzyki Polskiej w otwartym dostępie}
!!!ONB-nifc: Skany 0104-0105
!!!AIN: 2 piano
!!!key: d
**kern	**kern	**dynam
*part2	*part1	*part1
*staff2	*staff1	*
*	*I"PIANO.	*
*	*I'P-no	*
*Ipiano	*Ipiano	*
*ICklav	*ICklav	*
*clefF4	*clefG2	*
*k[b-]	*k[b-]	*
*d:	*d:	*
*M4/4	*M4/4	*
*met(c)	*met(c)	*
!	!LO:TX:a:t=Adagio.	!
16FF/ 16C	16A/ 16f	f
=1	=1	=1
1FF; 1C	1A; 1f	.
=2	=2	=2
*^	*	*
!	!	!LO:TX:b:t=cantabile	!
!	!	!LO:TX:a:t=Vno Solo	!
(8A/L	1F	(2aa\	p
8c/	.	.	.
8f/	.	.	.
8c/J	.	.	.
8A/L	.	16gg#X\LL	.
.	.	16aa\	.
8c/	.	16ddd\	.
.	.	16ccc\JJ	.
8f/	.	16gg#\LL	.
.	.	16aa\	.
8c/J)	.	16ff\	.
.	.	16dd\JJ)	.
=3	=3	=3	=3
(8A/L	1F	[2cc\	.
8c/	.	.	.
8f/	.	.	.
8c/J	.	.	.
8A/L	.	8cc\L]	<
8c/	.	(16dd\L	.
.	.	16ee\JJ	.
8f/	.	16ff\LL	.
.	.	16gg\	.
8c/J)	.	16aa\	.
.	.	16bb-\JJ)	[[
!LO:LB:g=original	!	!LO:LB:g=original	!
=4	=4	=4	=4
(8A/L	1F	(16ccc\LL	.
.	.	16aa\	.
8c/	.	16bb-\	.
.	.	16ccc\JJ	.
8f/	.	16ddd\LL	.
.	.	16eee\	.
8c/J	.	16fff\	.
.	.	16ggg\JJ)	.
8A/L	.	(16aaa\LL	.
.	.	16eee\	.
8c/	.	16fff\	.
.	.	16bbn\JJ)	.
!	!	!LO:TUP:a	!
8f/	.	(24ccc\LL	.
.	.	24gg#X\	.
.	.	24aa\	.
8c/J)	.	24ff\	.
.	.	24ddd\	.
.	.	24ccc\JJ)	.
=5	=5	=5	=5
(8B-/L	1E	4..ccc\	>
8c/	.	.	.
8g/	.	.	.
8c/J	.	.	.
.	.	(32bb-\LLL	.
.	.	32aa\JJJ	.
8B-/L	.	8gg\L)	]
!	!	!LO:TX:a:t=Ob	!
8c/	.	(16bb-\L	.
.	.	16gg\JJ	.
8g/	.	16ee\LL	.
.	.	16cc\	.
8c/J)	.	16b-\	.
.	.	16g\JJ)	.
=6	=6	=6	=6
!	!	!LO:TX:a:t=Vno	!
.	.	8qe/	.
(8E/L	1C	2gg\	.
8G/	.	.	.
8B-/	.	.	.
8G/J	.	.	.
8E/L	.	(16ff#X\LL	.
.	.	16gg\	.
8G/	.	16ddd\	.
.	.	16ccc\JJ	.
8B-/	.	16aa\LL	.
.	.	16bb-\	.
8G/J)	.	16gg\	.
.	.	16ee\JJ)	.
!LO:LB:g=original	!	!LO:LB:g=original	!
=7	=7	=7	=7
(8E/L	1C	[2ccT\	.
8G/	.	.	.
8B-/	.	.	.
8G/J	.	.	.
8E/L	.	16cc\LL]	.
.	.	(16bn^<\	.
8G/	.	16cc\)	.
.	.	(16dd#X^<\JJ	.
8B-/	.	16ee\LL)	.
.	.	(16ff#X^<\	.
8G/J)	.	16gg\)	.
.	.	(16bbn^<\JJ	.
=8	=8	=8	=8
(8E/L	1C	16ccc\LL)	.
*	*	*8va	*
.	.	(16ddd#X\	.
8G/	.	16eee\)	.
.	.	(16fff#X\JJ	.
8B-/	.	16ggg\LL)	.
.	.	(16aaa\	.
8G/J	.	16bbb-\)	.
.	.	(16aaa\JJ	.
8E/L	.	16ggg\LL)	.
.	.	(16fffn\	>
8G/	.	16eee\	.
.	.	16ddd#\JJ	.
8B-/	.	16ccc\LL	.
.	.	16ccc#X\	.
8G/J)	.	16ddd#\	.
.	.	16bb-\JJ)	]]
=9	=9	=9	=9
(>8FF/L	4ryy	2gg#X^/	.
[8F/J	.	.	.
8B-/L 8e	2.F\]	.	.
8c/J	.	.	.
.	.	16qqbb-/LL	.
.	.	16qqaa/	.
.	.	16qqgg#/	.
.	.	16qqaa/	.
.	.	16qqbb-/JJ	.
8A/L 8f	.	8aa\L	.
*	*	*X8va	*
!	!	!LO:TX:a:t=Flau	!
8c/	.	(16fff\L	.
.	.	16ccc\JJ	.
8A/ 8f	.	16aa\LL	.
.	.	16ff\	.
8c/J)	.	16cc\	.
.	.	16a\JJ)	.
!LO:LB:g=original	!	!LO:LB:g=original	!
=10	=10	=10	=10
(8AA\L	2AA/	2f^T/	.
8C\	.	.	.
8F\	.	.	.
8C\J	.	.	.
.	.	(>8qe/	<
*	*	*Xtuplet	*
8AA\L	2AA/	56f\LLL	.
.	.	56g\	.
.	.	56a\	.
.	.	56b-\	.
.	.	56cc\	.
.	.	56dd\	.
.	.	56ee\	.
8C\	.	56ff\	.
.	.	56gg\	.
.	.	56aa\	.
.	.	56bb-\	.
.	.	56ccc\	.
.	.	56ddd\	.
.	.	56eee\JJJ	.
8F\	.	8.fff\L	[
8C\J)	.	.	.
.	.	16eee\Jk)	.
=11	=11	=11	=11
(8D/L	2BB-\	([8ccc#X\L	f
8F/	.	32ccc#\LL]	.
.	.	32ddd\	.
.	.	32eee\	.
.	.	32ddd\JJJ)	.
8B-/	.	(32aa\LLL	.
.	.	32bb-\	.
.	.	32ee\	.
.	.	32ff\)	.
8F/J	.	32dd'\	.
.	.	32b-'\	.
.	.	32f'\	.
.	.	32d'\JJJ	.
8D/L	2BB-\	(4B-/	.
8F/	.	.	.
8B-/	.	4ddd^\)	.
8F/J)	.	.	.
=12	=12	=12	=12
(8E/L	2C\	(4ddd\	.
8G/	.	.	.
8B-/	.	8ee\L	.
8G/J	.	8ff\J)	.
8E/L	2C\	(4gg\	.
8G/	.	.	.
8B-/	.	8ddd\L	.
8G/J)	.	8ccc\J)	.
!LO:LB:g=original	!	!LO:LB:g=original	!
=13	=13	=13	=13
8r	[2F\	2ccc^\	.
(8c/L	.	.	.
8B-/ 8f	.	.	.
8c/J	.	.	.
.	.	16qqbb-/LL	.
.	.	16qqaa/	.
.	.	16qqccc/	.
.	.	16qqbb-/	.
.	.	16qqaa/JJ	.
8A/L 8f	2F\]	4aa\	.
8c/	.	.	.
8A/ 8f	.	4r	.
8c/J)	.	.	.
=14	=14	=14	=14
(8C/L	2AA\	[4fT/	.
8F/	.	.	.
8C/	.	(32f/LLL]	.
.	.	32e/	.
.	.	32f/	.
.	.	32g#X/JJJ	.
8F/J	.	32a/LLL	.
.	.	32g#/	.
.	.	32a/	.
.	.	32bn/JJJ)	.
8C/L	2AA\	(32cc\LLL	<
.	.	32b\	.
.	.	32cc\	.
.	.	32ee\JJJ	.
8F/	.	32ff\LLL	.
.	.	32ee\	.
.	.	32ff\	.
.	.	32aa\JJJ	.
8C/	.	32ccc\LLL	.
.	.	32bbn\	.
.	.	32ccc\	.
.	.	32eee\JJJ	.
8F/J)	.	16.fff\LL	[
.	.	32eee\JJk)	.
!LO:LB:g=original	!	!LO:LB:g=original	!
=15	=15	=15	=15
!	!	!LO:TX:b:t=con grand espressione	!
(8D/L	2BB-\	(8ccc#X\L	f
8F/	.	8ddd\J	.
!	!	!LO:TUP:a	!
*	*	*tuplet	*
8D/	.	[4bbb-^<\)	.
8F#X/J	.	.	.
8D/L	2BB-\	(12bbb-\L]	.
.	.	12aaa'^<\	.
8G/	.	.	.
.	.	12ggg'^<\J	.
8D/	.	12fff'^<\L	.
.	.	12eee'^<\	.
8G/J)	.	.	.
.	.	12ddd'^<\J)	.
=16	=16	=16	=16
(8F/L	2C\	([8ddd^<\L	.
8A/	.	32ddd\LL]	.
.	.	32ccc\	.
.	.	32aa\	.
.	.	32ff\JJJ)	.
8F/	.	([8dd^\L	>
8A/J	.	32dd\LL]	.
.	.	32cc\	.
.	.	32a\	.
.	.	32f\JJJ)	.
8F/L	2C\	4cT/	]
8A/	.	.	.
.	.	16qqBn/LL	.
.	.	16qqc/JJ	.
8E/	.	8a^>/L	.
8B-/J)	.	16r	.
.	.	16g/Jk	.
=17	=17	=17	=17
*	*	*^	*
8r	[2FF\	([4g/	2ryy	.
8C/L	.	.	.	.
8BB-/ 8E	.	16g/LL]	.	.
.	.	32f#X/L	.	.
.	.	32g/	.	.
8C/J	.	32a/	.	.
.	.	32g/	.	.
.	.	32b-/	.	.
.	.	32a/JJJ)	.	.
8AA/ 8F	8FF\]	8f#/	8ryy	.
!	!	!LO:TX:b:t=Clar	!	!
!LO:TX:a:t=Fag	!	!LO:TX:a:t=Ob	!	!
(8f\L	8r	(8aa/L	4cc\	.
8e\	4r	8gg/	.	.
8d\J)	.	8ff/J)	8g\ 8bn	.
!LO:LB:g=original	!	!LO:LB:g=original	!LO:LB:g=original	!
*v	*v	*	*	*
*	*v	*v	*
=18	=18	=18
.	(16qqg/LL	f
.	16qqcc/	.
!	!LO:TX:b:t=risoluto	!
!	!LO:TX:a:t=Un poco piu di moto	!
.	16qqee/JJ	.
*tremolo	*	*
8C\L 8E 8G 8c	[2gg\)	.
8C\ 8E 8G 8c	.	.
8C\ 8E 8G 8c	.	.
8C\J 8E 8G 8c	.	.
*Xtremolo	*	*
8C\L 8E 8G 8c	8gg\L]	.
8C\ 8E 8G 8c	(16ff#X\L	.
.	16gg\JJ	.
8C\ 8E 8G 8c	16aa\LL	.
.	16gg\	.
8C\J 8E 8G 8c	16ee\	.
.	16cc\JJ)	.
=19	=19	=19
*tremolo	*	*
8C\L 8E 8G 8c	[2g/	.
8C\ 8E 8G 8c	.	.
8C\ 8E 8G 8c	.	.
8C\J 8E 8G 8c	.	.
*Xtremolo	*	*
8C\L 8E 8G 8c	16g\LL]	.
.	(16bn\	.
8C\ 8E 8G 8c	16cc\)	.
.	(16dd#X\JJ	.
8C\ 8E 8G 8c	16ee\LL)	.
.	(16ff#X\	.
8C\J 8E 8G 8c	16gg\)	.
.	(16bbn\JJ	.
=20	=20	=20
8C\L 8E 8G	8ccc\L)	.
8C\J 8E 8G	(16eee^<\L	.
.	16ddd\JJ)	.
8C\L 8E 8G#X	(16ddd^<\LL	.
.	16ccc\)	.
8C\J 8E 8G#	(16ccc^<\	.
.	16bbn\JJ)	.
8C\L 8E 8A	(16bb^<\LL	.
.	16aa\)	.
8C\J 8E 8A	(16aa^<\	.
.	16gg#X\JJ)	.
8C#X\L 8E 8A	(16gg#^<\LL	.
.	16aa\)	.
8C#\J 8E 8A	(16aa^<\	.
.	16ee\JJ)	.
!LO:LB:g=original	!LO:LB:g=original	!
=21	=21	=21
*^	*	*
8r	2D\	2gg^<\	.
8E/L 8A 8c#X	.	.	.
8E/ 8A 8c#	.	.	.
8E/J 8A 8c#	.	.	.
.	.	16qqff/LL	.
.	.	16qqaa/	.
.	.	16qqgg/	.
.	.	16qqff/JJ	.
8F/L 8A 8d	8D\L	4ff\	<
8F/J 8A	8D\J	.	.
8F/L 8A-X	8C\L	4r	.
8F/J 8A-	8C\J	.	[[
*v	*v	*	*
=22	=22	=22
8BBn\L 8D 8F 8A-X	4..fff^<\	.
8BB\ 8D 8F 8A-	.	.
8BB\ 8D 8F 8A-	.	.
8BB\J 8D 8F 8A-	.	.
.	(32eee\LLL	.
.	32ddd\JJJ)	.
8BB\L 8D 8F 8A-	4..ddd^<\	.
8BB\ 8D 8F 8A-	.	.
8BB\ 8D 8F 8A-	.	.
8BB\J 8D 8F 8A-	.	.
.	(32ccc\LLL	.
.	32bbn\JJJ)	.
=23	=23	=23
8BB-\L 8D 8Fn 8G#X	8.bbn^<\L	.
8BB-\ 8D 8F 8G#	.	.
.	(32aa\LL	.
.	32gg\JJJ)	.
8BB-\ 8D 8F 8G#	8.gg^<\L	.
8BB-\J 8D 8F 8G#	.	.
.	(32ff\LL	.
.	32ee\JJJ)	.
8BB-\L 8D 8F 8G#	8dd^<\L	.
8BB-\ 8D 8F 8G#	16r	.
.	(32cc\LL	.
.	32bn\JJJ)	.
8BB-\ 8D 8F 8G#	8b^</L	.
8BB-\J 8D 8F 8G#	16r	.
.	(32a/LL	.
.	32g#X/JJJ)	.
!LO:LB:g=original	!LO:LB:g=original	!
=24	=24	=24
8E\L 8G	8g#X/L	.
8E\ 8G 8d	(16bn^>/L	.
.	16a/JJ)	.
8E\ 8G 8d	(16a^>/LL	.
.	16g#/)	.
8E\J 8G 8d	(16g#^>/	.
.	16f/JJ)	.
8EE/L 8GG#X 8D	(16f^>/LL	>
.	16e/)	.
8EE/ 8GG# 8D	(16e^>/	.
.	16d#X/JJ)	.
8EE/ 8GG# 8D	(16d#^>/LL	.
.	16e/)	.
8EE/J 8GG# 8D	(16e^>/	.
.	16Bn/JJ)	]]
=25	=25	=25
8AA\L 8C	8c/	p
8A\J 8c 8e	8r	.
8A\L 8c 8e	4cccT\	.
8A\J 8c 8e	.	.
!	!	!LO:HP:t=cres--
8G\L 8A 8e	2ccc#Xt\	<
8G\ 8A 8e	.	.
8G\ 8A 8e	.	.
8G\J 8A 8e	.	.
.	(16qqbbn/LL	.
.	16qqccc#/JJ)	.
=26	=26	=26
8F\L 8A 8d	2dddT\	.
8F\ 8A 8d	.	.
8F\ 8A 8d	.	.
8F\J 8A 8d	.	.
.	(16qqccc#X/LL	.
.	16qqddd/JJ)	.
8C#X\L 8G 8A	2eeet\	.
8C#\ 8G 8A	.	.
8C#\ 8G 8A	.	.
8C#\J 8G 8A	.	.
.	(16qqddd/LL	.
.	16qqeee/JJ)	.
!LO:LB:g=original	!LO:LB:g=original	!
=27	=27	=27
8D\L 8F 8A	(4.fff\	f
8D\J 8F 8A	.	.
8F\L 8A 8d	.	.
8F\J 8A 8d	16eee\LL	.
.	16ddd\JJ)	.
8F\L 8G 8Bn 8d	(16ccc#X\LL	.
.	16ddd\	.
8F\ 8G 8B 8d	16eee\	.
.	16ddd\JJ	.
8F\ 8G 8B 8d	16cccn\LL	.
.	16bbn\	.
8F\J 8G 8B 8d	16aa\	.
.	16gg\JJ)	.
=28	=28	=28
8E\L 8G 8c	(8ggg^<\L	.
8E\ 8G 8c	16fff\L	.
.	16eee\JJ)	.
8E\ 8G 8c	(8eee^<\L	.
8E\J 8G#X 8c	16ddd\L	.
.	16ccc\JJ)	.
8F\L 8A 8c	(32bbn\LLL	.
.	32ccc\	.
.	32ddd\	.
.	32ccc\	.
8F\J 8A 8c#X	32bb\	.
.	32aa\	.
.	32gg#X\	.
.	32aa\JJJ	.
8F\L 8A 8d	32bb\LLL	.
.	32aa\	.
.	32ee\	.
.	32ff\	.
8F\J 8A 8d	32ggn\	.
.	32ff\	.
.	32dd\	.
.	32aa\JJJ)	.
=29	=29	=29
8G\ 8c 8e	2ccT\	.
8GG/L 8C 8E	.	.
8GG/ 8C 8E	.	.
8GG/J 8C 8E	.	.
.	(16qqbn/LL	>
.	16qqcc/JJ)	.
8GG/L 8BBn 8F	(4..ee^\	.
8GG/ 8BB 8F	.	.
8GG/ 8BB 8F	.	.
8GG/J 8BB 8F	.	.
.	16dd\)	]]
!LO:PB:g=original	!LO:PB:g=original	!
=30	=30	=30
*^	*	*
(8E/L	2C\	4cc\	p
8G/	.	.	.
8c/	.	4r	.
8G/J	.	.	.
!	!	!LO:TX:b:t=dol	!
8E/L 8c	2C\	([4.aa^<\	.
8G/	.	.	.
8E/ 8c	.	.	.
8G/J)	.	32aa\LLL]	.
.	.	32gg\	.
.	.	32ee\	.
.	.	32cc\JJJ	.
=31	=31	=31	=31
(8F/L 8Bn	2C\	4g/)	.
8G/	.	.	.
8F/ 8B	.	4r	.
8G/J	.	.	.
8F/L 8B	2C\	(4.aa^<\	.
8G/	.	.	.
8F/ 8B	.	.	.
8G/J)	.	32aa\LLL	.
.	.	32gg\	.
.	.	32ff\	.
.	.	32dd\JJJ	.
=32	=32	=32	=32
(8E/L 8c	1C	4cc\)	.
8G/	.	.	.
8E/ 8c	.	4r	.
8G/J	.	.	.
8E/L 8c	.	(4eee\	f
8G/	.	.	.
8E/ 8c	.	16ddd\LL	.
.	.	16ccc^<\	.
8G/J)	.	16bbn^<\	.
.	.	16aa^<\JJ)	.
!LO:LB:g=original	!	!LO:LB:g=original	!
=33	=33	=33	=33
(8F/L 8Bn	1C	(32gg\LLL	.
.	.	32aa\	.
.	.	32gg\	.
.	.	32ff#X\	.
8G/	.	32gg\	.
.	.	32gg#X\	.
.	.	32bbn\	.
.	.	32aa\JJJ	.
8F/ 8B	.	32dd\LLL	.
.	.	32ee\	.
.	.	32dd\	.
.	.	32cc#X\	.
8G/J	.	32dd\	.
.	.	32ee\	.
.	.	32ggn\	.
.	.	32ffn\JJJ)	.
!	!	!	!LO:HP:t=dimin--
8F/L 8B	.	(32bn\LLL	>
.	.	32ccn\	.
.	.	32b\	.
.	.	32a#X\	.
8G/	.	32b\	.
.	.	32cc\	.
.	.	32ee\	.
.	.	32dd\JJJ	.
8F/ 8B	.	16g/LL)	.
.	.	(32f'/L	.
.	.	32g'/	.
8G/J)	.	32g#X'/	.
.	.	32an'/	.
.	.	32a#X'/	.
.	.	32b'/JJJ)	.
=34	=34	=34	=34
8E/L 8G 8c	1C	4cc\	p
8G/	.	.	.
8E/ 8c	.	4r	.
8G/J	.	.	.
8E/L 8c	.	([4aa^<\	.
8G/	.	.	.
8E/ 8c	.	32aa\LLL]	.
.	.	32gg\	.
.	.	32aa\	.
.	.	32gg\	.
8G/J	.	32aa\	.
.	.	32gg\	.
.	.	32ee\	.
.	.	32cc\JJJ)	.
!LO:LB:g=original	!	!LO:LB:g=original	!
=35	=35	=35	=35
8F/L 8Bn	1C	4g/	.
8G/	.	.	.
8F/ 8B	.	4r	.
8G/J	.	.	.
8F/L 8B	.	([4aa^<\	.
8G/	.	.	.
8F/ 8B	.	32aa\LLL]	.
.	.	32gg\	.
.	.	32aa\	.
.	.	32gg\	.
8G/J	.	32aa\	.
.	.	32gg\	.
.	.	32ff\	.
.	.	32dd\JJJ	.
=36	=36	=36	=36
8E/L 8c	1C	4cc\)	.
8G/	.	.	.
8E/ 8c	.	4r	<
8G/J	.	.	.
8E/L 8c	.	[2ggg\	fz [[
8G/	.	.	.
8E/ 8c	.	.	.
8G/J	.	.	.
=37	=37	=37	=37
8F/L 8Bn	1C	(32ggg\LLL]	.
.	.	32fff\	.
.	.	32ccc#X\	.
.	.	32ddd\	.
8G/	.	32eee\	.
.	.	32ddd\	.
.	.	32aa#X\	.
.	.	32bbn\JJJ	.
!	!	!LO:TX:b:t=rallen	!
8F/ 8B	.	32cccn\LLL	.
.	.	32bb\	.
.	.	32ff#X\	.
.	.	32gg\	.
8G/J	.	32aa#\	.
.	.	32gg\	.
.	.	32ee\	.
.	.	32ffn\JJJ)	.
8F/L 8B	.	(32gg\LLL	>
.	.	32ff\	.
.	.	32cc#X\	.
.	.	32dd\	.
8G/	.	32ee\	.
.	.	32dd\	.
.	.	32a#X\	.
.	.	32bn\JJJ	.
8F/ 8B	.	32ff\LLL	.
.	.	32ee\	.
.	.	32ff\	.
.	.	32dd\	.
8G/J	.	32b\	.
.	.	32g\	.
.	.	32f\	.
.	.	32d\JJJ)	]]
!LO:LB:g=original	!	!LO:LB:g=original	!
*v	*v	*	*
=38	=38	=38
8C\L	8c/	p
8C\J 8E	8r	<
*tremolo	*	*
8C\L 8E	2.cccT\	[[
8C\J 8E	.	.
8C\L 8D 8F	.	.
8C\J 8D 8F	.	.
8C\L 8D#X 8F#X	.	.
8C\J 8D# 8F#	.	.
=39	=39	=39
8C\L 8E 8G	1ccc	.
8C\ 8E 8G	.	.
8C\ 8E 8G	.	.
8C\J 8E 8G	.	.
8C\L 8F 8A-X	.	.
8C\J 8F 8A-	.	.
8C\L 8F#X 8An	.	.
8C\J 8F# 8A	.	.
.	16qqbbn/LL	.
.	16qqccc/JJ	.
=40	=40	=40
2C;\ 2G 2B-	8ggg\L	f
.	8aaa\J	.
!	!LO:TX:b:t=Cadenza	!
.	4bbb-;\	.
.	8qqggg^<\L	.
.	8qqeee^<\	.
.	8qqccc^<\	.
.	8qqbb-^<\	.
.	8qqgg^<\	.
.	8qqee^<\	.
.	8qqcc^<\J	.
.	8qqdd-X;^</L	.
.	8qqb-^</	.
.	8qqg^</	.
.	8qqe^</	.
.	8qqd-X^</J	.
2r;	4c;/	.
!	!LO:N:vis=16	!
*	*cue	*
*	*Xtuplet	*
.	(80Bn/LLLL	p
!	!LO:N:vis=16	!
!	!LO:TX:b:t=poco rallen	!
.	80c/	.
!	!LO:N:vis=16	!
.	80c#X/	.
!	!LO:N:vis=16	!
.	80d-/	.
!	!LO:N:vis=16	!
.	80d#X/	.
!	!LO:N:vis=16	!
.	96e/	.
!	!LO:N:vis=16	!
.	96f/	.
!	!LO:N:vis=16	!
.	96f#X/	.
!	!LO:N:vis=16	!
.	96g/	.
!	!LO:N:vis=16	!
.	96g#X/	.
!	!LO:N:vis=16	!
.	96a/	.
!	!LO:N:vis=16	!
.	80b-/	.
!	!LO:N:vis=16	!
.	80bn/	.
!	!LO:N:vis=16	!
.	80ccn/	.
!	!LO:N:vis=16	!
.	80cc#X/	.
!	!LO:N:vis=16	!
.	80ddn/	.
!	!LO:N:vis=16	!
.	96dd#X/	.
!	!LO:N:vis=16	!
.	96ee/	.
!	!LO:N:vis=16	!
.	96ffn/	.
!	!LO:N:vis=16	!
.	96ff#X/	.
!	!LO:N:vis=16	!
.	96ggn/	.
!	!LO:N:vis=16	!
.	96gg#X/JJJJ)	.
*	*Xcue	*
!LO:LB:g=original	!LO:LB:g=original	!
=41	=41	=41
*^	*	*
!	!	!LO:TX:b:t=a tempo	!
8r	1F	2aa\	p
*Xtremolo	*	*	*
8A/L 8c 8f	.	.	.
8A/ 8c 8f	.	.	.
8A/J 8c 8f	.	.	.
8A/L 8c 8f	.	(16gg#X\LL	.
.	.	16aa\	.
8A/ 8c 8f	.	16ddd\	.
.	.	16ccc\JJ	.
8A/ 8c 8f	.	16gg#\LL	.
.	.	16aa\	.
8A/J 8c 8f	.	16ff\	.
.	.	16dd\JJ)	.
=42	=42	=42	=42
8r	1F	[2cc\	.
8A/L 8c 8f	.	.	.
8A/ 8c 8f	.	.	.
8A/J 8c 8f	.	.	.
8A/L 8c 8f	.	8cc\L]	.
8A/ 8c 8f	.	(16dd\L	<
.	.	16ee\JJ	.
8A/ 8c 8f	.	16ff\LL	.
.	.	16gg\	.
8A/J 8c 8f	.	16aa\	.
.	.	16bb-\JJ)	.
=43	=43	=43	=43
8r	1F	(16ccc\LL	.
.	.	16aa\	.
8A/L 8c 8f	.	16bb-\	.
.	.	16ccc\JJ	.
8A/ 8c 8f	.	16ddd\LL	[
.	.	16eee\	.
8A/J 8c 8f	.	16fff\	.
.	.	16ggg\JJ	.
8A/L 8c 8f	.	16aaa\LL)	.
.	.	(16eee\	.
8A/ 8c 8f	.	16fff\)	.
.	.	(16bbn\JJ	.
*	*	*tuplet	*
!	!	!LO:TUP:a	!
8A/ 8c 8f	.	(24ccc\LL)	.
.	.	24gg#X\	.
.	.	24aa\	.
8A/J 8c 8f	.	24ff\	.
.	.	24ddd\	.
.	.	24ccc\JJ)	.
!LO:LB:g=original	!	!LO:LB:g=original	!
=44	=44	=44	=44
8r	1E	4..ccc\	>
8B-/L 8c 8g	.	.	.
8B-/ 8c 8g	.	.	.
8B-/J 8c 8g	.	.	.
.	.	(32bb-\LLL	.
.	.	32aa\JJJ	]
8B-/L 8c 8g	.	8gg\L)	.
!	!	!LO:TX:a:t=Ob	!
8B-/ 8c 8g	.	(16bb-\L	.
.	.	16gg\JJ	.
8B-/ 8c 8g	.	16ee\LL	.
.	.	16cc\	.
8B-/J 8c 8g	.	16b-\	.
.	.	16g\JJ)	.
=45	=45	=45	=45
!	!	!LO:TX:a:t=Vno	!
.	.	8qg/	.
8r	1C	2gg\	.
8G/L 8B- 8e	.	.	.
8G/ 8B- 8e	.	.	.
8G/J 8B- 8e	.	.	.
8G/L 8B- 8e	.	(16ff#X\LL	.
.	.	16gg\	.
8G/ 8B- 8e	.	16ddd\	.
.	.	16ccc\JJ	.
8G/ 8B- 8e	.	16aa\LL	.
.	.	16bb-\	.
8G/J 8B- 8e	.	16gg\	.
.	.	16ee\JJ)	.
=46	=46	=46	=46
!	!	!	!LO:HP:t=cres---
8r	1C	[2cc\	<
8G/L 8B- 8e	.	.	.
8G/ 8B- 8e	.	.	.
8G/J 8B- 8e	.	.	.
8G/L 8B- 8e	.	(32cc\LLL]	.
.	.	32bn\	.
.	.	32cc\	.
.	.	32dd\	.
8G/ 8B- 8e	.	32ee\	.
.	.	32dd\	.
.	.	32ee\	.
.	.	32ff\JJJ)	.
8G/ 8B- 8e	.	(32gg\LLL	.
.	.	32ff#X\	.
.	.	32gg\	.
.	.	32aa\	.
8G/J 8B- 8e	.	32bb-\	.
.	.	32aa\	.
.	.	32bb-\	.
.	.	32bbn\JJJ)	.
!LO:LB:g=original	!	!LO:LB:g=original	!
*v	*v	*	*
=47	=47	=47
1C: 1G: 1B-: 1e:	(32ccc\LLL	.
.	32bbn\	.
.	32ccc\	.
.	32ddd\	.
*	*8va	*
.	32eee\	.
.	32ddd\	.
.	32eee\	.
.	32fff\JJJ	.
!	!LO:TX:b:t=rallen	!
.	32ggg\LLL	.
.	32fff#X\	.
.	32ggg\	.
.	32aaa\	.
.	32bbb-\	.
.	32aaa\	.
.	32ggg\	.
.	32fffn\JJJ	.
.	32eee\LLL	.
.	32fff\	.
.	32ggg\	.
.	32fff\	.
.	32eee\	.
.	32ddd\	.
.	32ccc\	.
.	32bbn\JJJ)	.
*	*X8va	*
.	(32ccc\LLL	.
.	32ccc#X\	.
.	32eee\	.
.	32ddd\	.
.	32cccn\	.
.	32bb-X\	.
.	32aa\	.
.	32gg#X\JJJ)	.
=48	=48	=48
*^	*	*
!	!	!LO:TX:b:t=a tempo	!
8r	1F	2gg#X^\	>
8B-/L 8c 8e	.	.	.
8B-/ 8c 8e	.	.	.
8B-/J 8c 8e	.	.	.
.	.	(16qqbb-/LL	.
.	.	16qqaa/	.
.	.	16qqgg#/	.
.	.	16qqaa/	.
.	.	16qqbb-/JJ)	.
8A/L 8c 8f	.	4aa\	.
8A/ 8c 8f	.	.	.
8A/ 8c 8f	.	4r	]]
8A/J 8c 8f	.	.	.
!LO:LB:g=original	!	!LO:LB:g=original	!
=49	=49	=49	=49
8r	2AA\	2f^T/	f
8C/L 8F	.	.	.
8C/ 8F	.	.	.
8C/J 8F	.	.	.
.	.	(8qe/	<
*	*	*Xtuplet	*
8r	2AA\	56f\LLL	.
.	.	56g\	.
.	.	56a\	.
.	.	56b-\	.
.	.	56cc\	.
.	.	56dd\	.
.	.	56ee\	.
8C/L 8F	.	56ff\	.
.	.	56gg\	.
.	.	56aa\	.
.	.	56bb-\	.
.	.	56ccc\	.
.	.	56ddd\	.
.	.	56eee\JJJ	.
8C/ 8F	.	8.fff^<\L	[
8C/J 8F	.	.	.
.	.	16eee\Jk)	.
=50	=50	=50	=50
!	!	!LO:TX:b:t=con grand espressione	!
8r	2.BB-\	(8ccc#X\L	<
8D/L 8F	.	8ddd\J	.
8D/ 8F	.	[4bbb-\)	fz
8D/J 8F#X	.	.	]
*	*	*tuplet	*
!	!	!LO:TUP:a	!
8D/L 8G	.	(12bbb-\L]	[ >
.	.	12aaa^<\	.
8D/J 8G	.	.	.
.	.	12ggg^<\J	.
!	!	!LO:TUP:a	!
8BB-/L	4BB-\	12fff^<\L	.
.	.	12eee^<\	.
8D/J 8G	.	.	.
.	.	12ddd^<\J)	]]
!LO:LB:g=original	!	!LO:LB:g=original	!
=51	=51	=51	=51
8r	2C\	(16ccc\LL	.
.	.	16ddd\	.
8F/L 8A	.	16eee\	.
.	.	16fff\JJ)	.
8F/ 8A	.	(16aa\LL	.
.	.	16bb-\	.
8F/J 8A	.	16bbn\	.
.	.	16ccc\JJ)	.
.	.	(16qqbn/LL	.
.	.	16qqcc/	.
.	.	16qqdd/JJ)	.
8C\L	4C\	(4ccT\	.
8F\J 8A	.	.	.
.	.	16qqb/LL	.
.	.	16qqcc/JJ	.
8C\L	4C\	8.aa\L	.
8E\J 8B-	.	.	.
.	.	16gg\Jk)	.
=52	=52	=52	=52
(8A/L	1F	4ff\	p
8c/	.	.	.
8f/	.	4r	.
8c/J	.	.	.
.	.	(16qqbbn/LL	.
.	.	16qqccc/	.
.	.	16qqddd/JJ)	.
8B-/L	.	2ccc^<\	.
8c/	.	.	.
8e/	.	.	.
8c/J)	.	.	.
.	.	(16qqbb/LL	.
.	.	16qqccc/JJ)	.
=53	=53	=53	=53
(8A/L 8f	1F	4fff\	.
8c/	.	.	.
8A/ 8f	.	4r	.
8c/J	.	.	.
.	.	(16qqbn/LL	.
.	.	16qqcc/	.
.	.	16qqdd/JJ)	.
8B-/L	.	2ccT\	.
8c/	.	.	.
8e/	.	.	.
8c/J)	.	.	.
*v	*v	*	*
.	(16qqb/LL	.
.	16qqcc/JJ)	.
!LO:LB:g=original	!LO:LB:g=original	!
=54	=54	=54
8F\L 8A 8c 8f	[4ff\	.
8FF\J 8AA 8C 8F	.	.
[4FF/ [4AA [4C [4F	8ff\L]	.
!	!	!LO:HP:t=poco-cres-cen-do
.	(32e\LL	<
.	32f\	.
.	32a\	.
.	32cc\JJJ	.
8FF/L] 8AA] 8C] 8F]	[4ff\)	.
8FF/J 8AA 8C 8F	.	.
[4FF/ [4AA [4C [4F	8ff\L]	.
.	(32g#X\LL	.
.	32a\	.
.	32cc\	.
.	32ff\JJJ	.
=55	=55	=55
8FF\L] 8AA] 8C] 8F]	[4aa\)	.
8F\J 8A 8c 8f	.	.
[4F\ [4A [4c [4f	8aa\L]	.
.	(32bn\LL	.
.	32cc\	.
.	32ff\	.
.	32aa\JJJ	.
8F\L] 8A] 8c] 8f]	[4ccc\)	.
8F\J 8A 8c 8f	.	.
4F\ 4A 4c 4f	(8ccc\L]	.
.	32ee\LL	.
.	32ff\	.
.	32aa\	.
.	32ccc\JJJ	.
!LO:LB:g=original	!LO:LB:g=original	!
=56	=56	=56
2F:\ 2c: 2a:	([4fff\)	f
.	8fff\L]	.
.	32bbn\LL	.
.	32ccc\	.
.	32ddd\	.
.	32ccc\JJJ)	.
!	!LO:TX:b:t=rallen	!
4FF:/ 4C: 4A:	(32gg#X\LLL	>
.	32aa\	.
.	32bb\	.
.	32aa\	.
.	32ee\	.
.	32ff\	.
.	32gg#\	.
.	32ff\JJJ	.
4FF:/ 4C: 4A:	32bn/LLL	.
.	32cc/	.
.	32dd/	.
.	32cc/	.
.	32g#X/	.
.	32a/	.
.	32b-X/	.
.	32a/JJJ)	]]
=57	=57	=57
2FF;/ 2C 2A	2f;/	p
2r;	2r;	.
==	==	==
*-	*-	*-
!!!RDF**kern: > = above
!!!RDF**kern: < = below
!!!system-decoration: [(s1,s2)]
!!!ENC: Berenika Jozajtis
!!!END: 2022-09-12
!!!ENC: Julita Ruszuk
!!!END: 2022-09-21
!!!YEC: Copyright 2022 Narodowy Instytut Fryderyka Chopina (https://polishscores.org)
!!!YEM: License CC-BY-4.0 (https://creativecommons.org/licenses/by/4.0)
